svg/file/attachment_2_fill.svg

<?xml version="1.0" encoding="UTF-8"?>
<svg width="24px" height="24px" viewBox="0 0 24 24" version="1.1" xmlns="http://www.w3.org/2000/svg" xmlns:xlink="http://www.w3.org/1999/xlink">
    <title>attachment_2_fill</title>
    <g id="页面-1" stroke="none" stroke-width="1" fill="none" fill-rule="evenodd">
        <g id="File" transform="translate(0.000000, -48.000000)" fill-rule="nonzero">
            <g id="attachment_2_fill" transform="translate(0.000000, 48.000000)">
                 <path d="M24,0 L24,24 L0,24 L0,0 L24,0 Z M12.5934901,23.257841 L12.5819402,23.2595131 L12.5108777,23.2950439 L12.4918791,23.2987469 L12.4918791,23.2987469 L12.4767152,23.2950439 L12.4056548,23.2595131 C12.3958229,23.2563662 12.3870493,23.2590235 12.3821421,23.2649074 L12.3780323,23.275831 L12.360941,23.7031097 L12.3658947,23.7234994 L12.3769048,23.7357139 L12.4804777,23.8096931 L12.4953491,23.8136134 L12.4953491,23.8136134 L12.5071152,23.8096931 L12.6106902,23.7357139 L12.6232938,23.7196733 L12.6232938,23.7196733 L12.6266527,23.7031097 L12.609561,23.275831 C12.6075724,23.2657013 12.6010112,23.2592993 12.5934901,23.257841 L12.5934901,23.257841 Z M12.8583906,23.1452862 L12.8445485,23.1473072 L12.6598443,23.2396597 L12.6498822,23.2499052 L12.6498822,23.2499052 L12.6471943,23.2611114 L12.6650943,23.6906389 L12.6699349,23.7034178 L12.6699349,23.7034178 L12.678386,23.7104931 L12.8793402,23.8032389 C12.8914285,23.8068999 12.9022333,23.8029875 12.9078286,23.7952264 L12.9118235,23.7811639 L12.8776777,23.1665331 C12.8752882,23.1545897 12.8674102,23.1470016 12.8583906,23.1452862 L12.8583906,23.1452862 Z M12.1430473,23.1473072 C12.1332178,23.1423925 12.1221763,23.1452606 12.1156365,23.1525954 L12.1099173,23.1665331 L12.0757714,23.7811639 C12.0751323,23.7926639 12.0828099,23.8018602 12.0926481,23.8045676 L12.108256,23.8032389 L12.3092106,23.7104931 L12.3186497,23.7024347 L12.3186497,23.7024347 L12.3225043,23.6906389 L12.340401,23.2611114 L12.337245,23.2485176 L12.337245,23.2485176 L12.3277531,23.2396597 L12.1430473,23.1473072 Z" id="MingCute" fill-rule="nonzero"></path>
                <path d="M5.98969,10.2322 C4.81812,9.06059 4.81812,7.16109 5.98969,5.98952 C7.16127,4.81795 9.06076,4.81795 10.2323,5.98952 L18.0105,13.7677 C19.1821,14.9393 19.1821,16.8388 18.0105,18.0103 C16.8389,19.1819 14.9394,19.1819 13.7679,18.0103 L10.4091,14.6516 C10.1162,14.3587 10.1162,13.8838 10.4091,13.5909 C10.702,13.298 11.1769,13.298 11.4698,13.5909 L14.475,16.5961 C15.0608,17.1819 16.0105,17.1819 16.5963,16.5961 C17.1821,16.0103 17.1821,15.0606 16.5963,14.4748 L13.5911,11.4696 C12.1266,10.0051 9.75226,10.0051 8.28779,11.4696 C6.82332,12.9341 6.82332,15.3084 8.28779,16.7729 L11.6465,20.1317 C13.9897,22.4748 17.7887,22.4748 20.1318,20.1317 C22.475,17.7885 22.475,13.9895 20.1318,11.6464 L12.3537,3.8682 C10.0105,1.52505 6.21152,1.52505 3.86837,3.8682 C1.64779,6.08878 1.53164,9.6169 3.51993,11.9743 L3.5148,11.9999 L3.86837,12.3535 C4.45414,12.9392 5.40389,12.9392 5.98967,12.3535 C6.57545,11.7677 6.57546,10.8179 5.98969,10.2322 Z" id="路径" fill="#09244B"></path>
            </g>
        </g>
    </g>
</svg>

<svg xmlns="http://www.w3.org/2000/svg" width="24" height="24"><g fill="none" fill-rule="nonzero"><path d="M24 0v24H0V0h24ZM12.593 23.258l-.011.002-.071.035-.02.004-.014-.004-.071-.035c-.01-.004-.019-.001-.024.005l-.004.01-.017.428.005.02.01.013.104.074.015.004.012-.004.104-.074.012-.016.004-.017-.017-.427c-.002-.01-.009-.017-.017-.018Zm.265-.113-.013.002-.185.093-.01.01-.003.011.018.43.005.012.008.007.201.093c.012.004.023 0 .029-.008l.004-.014-.034-.614c-.003-.012-.01-.02-.02-.022Zm-.715.002a.023.023 0 0 0-.027.006l-.006.014-.034.614c0 .012.007.02.017.024l.015-.002.201-.093.01-.008.004-.011.017-.43-.003-.012-.01-.01-.184-.092Z"/><path fill="#09244B" d="M5.99 10.232a3 3 0 0 1 4.242-4.242l7.779 7.778a3 3 0 1 1-4.243 4.242l-3.359-3.358a.75.75 0 0 1 1.06-1.061l3.006 3.005a1.5 1.5 0 1 0 2.121-2.121l-3.005-3.005a3.75 3.75 0 1 0-5.303 5.303l3.358 3.359a6 6 0 0 0 8.486-8.486l-7.778-7.778a6 6 0 0 0-8.834 8.106L3.515 12l.353.354a1.5 1.5 0 0 0 2.122-2.122Z"/></g></svg>
